Newaita-dark/actions/16/align-horizontal-right.svg

<svg height="16" viewBox="0 0 16 16" width="16" xmlns="http://www.w3.org/2000/svg"><g fill="#e0e0e0"><path d="m13.5625 1.449219c-.183594 0-.332031.148437-.332031.328125v12.570312c0 .183594.148437.332032.332031.332032.179688 0 .328125-.148438.328125-.332032v-12.570312c0-.179688-.148437-.328125-.328125-.328125zm0 0"/><path d="m11.246094 2.441406c.734375 0 1.324218.589844 1.324218 1.320313v2.648437c0 .730469-.589843 1.324219-1.324218 1.324219h-7.9375c-.734375 0-1.324219-.59375-1.324219-1.324219v-2.648437c0-.730469.589844-1.320313 1.324219-1.320313zm-.332032 1.320313h-7.277343c-.179688 0-.328125.148437-.328125.332031v1.984375c0 .183594.148437.332031.328125.332031h7.277343c.183594 0 .332032-.148437.332032-.332031v-1.984375c0-.183594-.148438-.332031-.332032-.332031zm0 0"/><path d="m11.246094 9.054688c.734375 0 1.324218.589843 1.324218 1.324218v1.984375c0 .734375-.589843 1.324219-1.324218 1.324219h-3.96875c-.734375 0-1.324219-.589844-1.324219-1.324219v-1.984375c0-.734375.589844-1.324218 1.324219-1.324218zm-.332032 1.324218h-3.304687c-.183594 0-.332031.148438-.332031.332032v1.320312c0 .183594.148437.332031.332031.332031h3.304687c.183594 0 .332032-.148437.332032-.332031v-1.320312c0-.183594-.148438-.332032-.332032-.332032zm0 0"/></g></svg>

<?xml version="1.0" encoding="UTF-8"?>
<svg xmlns="http://www.w3.org/2000/svg" xmlns:xlink="http://www.w3.org/1999/xlink" width="16px" height="16px" viewBox="0 0 16 16" version="1.1">
<g id="surface1">
<path style=" stroke:none;fill-rule:nonzero;fill:rgb(87.843138%,87.843138%,87.843138%);fill-opacity:1;" d="M 13.5625 1.449219 C 13.378906 1.449219 13.230469 1.597656 13.230469 1.777344 L 13.230469 14.347656 C 13.230469 14.53125 13.378906 14.679688 13.5625 14.679688 C 13.742188 14.679688 13.890625 14.53125 13.890625 14.347656 L 13.890625 1.777344 C 13.890625 1.597656 13.742188 1.449219 13.5625 1.449219 Z M 13.5625 1.449219 "/>
<path style=" stroke:none;fill-rule:nonzero;fill:rgb(87.843138%,87.843138%,87.843138%);fill-opacity:1;" d="M 11.246094 2.441406 C 11.980469 2.441406 12.570312 3.03125 12.570312 3.761719 L 12.570312 6.410156 C 12.570312 7.140625 11.980469 7.734375 11.246094 7.734375 L 3.308594 7.734375 C 2.574219 7.734375 1.984375 7.140625 1.984375 6.410156 L 1.984375 3.761719 C 1.984375 3.03125 2.574219 2.441406 3.308594 2.441406 Z M 10.914062 3.761719 L 3.636719 3.761719 C 3.457031 3.761719 3.308594 3.910156 3.308594 4.09375 L 3.308594 6.078125 C 3.308594 6.261719 3.457031 6.410156 3.636719 6.410156 L 10.914062 6.410156 C 11.097656 6.410156 11.246094 6.261719 11.246094 6.078125 L 11.246094 4.09375 C 11.246094 3.910156 11.097656 3.761719 10.914062 3.761719 Z M 10.914062 3.761719 "/>
<path style=" stroke:none;fill-rule:nonzero;fill:rgb(87.843138%,87.843138%,87.843138%);fill-opacity:1;" d="M 11.246094 9.054688 C 11.980469 9.054688 12.570312 9.644531 12.570312 10.378906 L 12.570312 12.363281 C 12.570312 13.097656 11.980469 13.6875 11.246094 13.6875 L 7.277344 13.6875 C 6.542969 13.6875 5.953125 13.097656 5.953125 12.363281 L 5.953125 10.378906 C 5.953125 9.644531 6.542969 9.054688 7.277344 9.054688 Z M 10.914062 10.378906 L 7.609375 10.378906 C 7.425781 10.378906 7.277344 10.527344 7.277344 10.710938 L 7.277344 12.03125 C 7.277344 12.214844 7.425781 12.363281 7.609375 12.363281 L 10.914062 12.363281 C 11.097656 12.363281 11.246094 12.214844 11.246094 12.03125 L 11.246094 10.710938 C 11.246094 10.527344 11.097656 10.378906 10.914062 10.378906 Z M 10.914062 10.378906 "/>
</g>
</svg>
